X:1
T:Grub Springs
L:1/8
R:reel
M:C|
K:A
|: "A"[E2A,2]AB c2cB | cBAF E2[E2A,2]- | [E2A,2]AB cBAB | cBAF E2[E2A,2]- |
  -"A"[E2A,2]AB c2cB | cBAF E2A2 | c4 A4 | "D"FEF2 "A"E4 :|
|: "A"e4 e4 | "D"f2fa fec2  | "A"e4 e4 | "D"fefg a4 |
   "A"[e3c3][ed] [e2c2][f2d2]- | "D"[f2d2]fa fec2 |\
   "A"e4 "E"[e4B4] | cBAF "A"E4 :|
N:Portland Collection, pg 91 - abc by Peter Ostapenko 5/12/2007
N:A Major
